actions/32/colors-luma.svg

<svg xmlns="http://www.w3.org/2000/svg" xmlns:xlink="http://www.w3.org/1999/xlink" xmlns:inkscape="http://www.inkscape.org/namespaces/inkscape" viewBox="0 0 32 32">
  <defs
     id="defs3051">
    <style
       type="text/css"
       id="current-color-scheme">
      .ColorScheme-Text {
        color:#808080;
      }
      .ColorScheme-Highlight {
        color:#3daee9;
      }
      </style>
  </defs>
  <defs
     id="defs30">
    <linearGradient
       id="a"
       y1="19.998"
       x1="6"
       y2="7.998"
       gradientUnits="userSpaceOnUse"
       x2="18">
      <stop
         stop-color="#1d99f3"
         id="stop33" />
      <stop
         offset=".417"
         stop-color="#48acf5"
         stop-opacity=".761"
         id="stop35" />
      <stop
         offset=".667"
         stop-color="#73c0f7"
         stop-opacity="0"
         id="stop37" />
      <stop
         offset="1"
         stop-color="#cae7fc"
         stop-opacity="0"
         id="stop39" />
    </linearGradient>
    <path
       id="b"
       d="m11 4c-.973 3.405-3.356 6.344-4.406 8.688-.367.697-.594 1.467-.594 2.313 0 2.77 2.23 5 5 5 2.77 0 5-2.23 5-5 0-.845-.226-1.616-.594-2.313-1.05-2.344-3.433-5.283-4.406-8.688" />
  </defs>
  <use
     fill="#b3b3b3"
     xlink:href="#b"
     transform="matrix(1.5 0 0 1.5-.5-2)"
     id="use42" />
  <path
     style="fill:#777777"
     inkscape:connector-curvature="0"
     id="path46"
     d="M 16,4 C 15.5515,5.572 14.902,7.066 14.1715,8.5 L 16,8.5 Z m 0,4.5 0,6 5.25,0 c -1.0575,-1.821 -2.3175,-3.831 -3.4215,-6 z m 0,6 -5.25,0 c -0.2505,0.432 -0.531,0.855 -0.75,1.266 l 0,4.734 6,0 z m 0,6 0,6 4.5,0 C 21.0715,26.071 21.571,25.5715 22,25 l 0,-4.5 z" />
  <use
     height="100%"
     width="100%"
     y="0"
     x="0"
     style="fill:url(#a)"
     id="use48"
     xlink:href="#b"
     transform="matrix(1.5,0,0,1.5,-0.5,-2)" />
  <path
     style="fill:currentColor;fill-opacity:1;stroke:none" 
     id="path50"
     d="M 16,4 C 14.5405,9.1075 10.966,13.516 9.391,17.032 8.8405,18.0775 8.5,19.2325 8.5,20.5015 c 0,4.155 3.345,7.5 7.5,7.5 4.155,0 7.5,-3.345 7.5,-7.5 0,-1.2675 -0.339,-2.424 -0.891,-3.4695 C 21.034,13.516 17.4595,9.109 16,4 m 0,3 c 1.167,4.1505 4.0365,7.737 5.2965,10.59 0.234,0.45 0.3915,0.9015 0.516,1.407 0.051,0.2085 0.1125,0.438 0.141,0.657 0.0045,0.03 -0.003,0.0645 0,0.0945 C 21.979,19.966 22,20.179 22,20.4055 c 0,0.0315 0,0.0615 0,0.0945 -0.006,0.3885 -0.0675,0.7575 -0.141,1.125 -0.006,0.03 0.006,0.0645 0,0.0945 -0.0795,0.366 -0.1875,0.741 -0.3285,1.0785 -0.006,0.0135 0.006,0.033 0,0.0465 -0.1485,0.351 -0.3555,0.672 -0.5625,0.984 -0.0075,0.012 0.0075,0.036 0,0.0465 -0.21,0.312 -0.441,0.5775 -0.7035,0.8445 -0.2775,0.282 -0.561,0.528 -0.891,0.75 -0.957,0.6555 -2.1285,1.032 -3.375,1.032 -0.4155,0 -0.8265,-0.06 -1.2195,-0.141 C 14.5,26.3035 14.245,26.221 13.9825,26.1265 13.936,26.11 13.888,26.098 13.8415,26.08 c -0.06,-0.024 -0.129,-0.0225 -0.1875,-0.0465 -0.096,-0.0405 -0.1875,-0.0945 -0.282,-0.141 -0.1635,-0.081 -0.3135,-0.186 -0.4695,-0.282 -0.1065,-0.066 -0.225,-0.1155 -0.3285,-0.1875 -0.0285,-0.0195 -0.066,-0.027 -0.0945,-0.0465 -0.2685,-0.195 -0.5175,-0.4215 -0.75,-0.657 -0.225,-0.2295 -0.423,-0.4875 -0.609,-0.75 -0.018,-0.012 -0.0285,-0.0345 -0.0465,-0.0465 -0.6825,-0.9885 -1.0785,-2.211 -1.0785,-3.516 0,-1.0305 0.2625,-1.9635 0.7035,-2.8125 1.26,-2.856 4.1295,-6.444 5.2965,-10.59"
     class="ColorScheme-Text"
     />
</svg>

<svg xmlns="http://www.w3.org/2000/svg" xmlns:xlink="http://www.w3.org/1999/xlink" version="1.1" viewBox="0 0 32 32">
 <defs>
  <style id="current-color-scheme" type="text/css">
   .ColorScheme-Text { color:#808080; } .ColorScheme-Highlight { color:#3daee9; }
  </style>
 </defs>
 <defs>
  <linearGradient id="a" x1="6" x2="18" y1="19.998" y2="7.998" gradientUnits="userSpaceOnUse">
   <stop id="stop33" stop-color="#1d99f3"/>
   <stop id="stop35" offset=".417" stop-color="#48acf5" stop-opacity=".761"/>
   <stop id="stop37" offset=".667" stop-color="#73c0f7" stop-opacity="0"/>
   <stop id="stop39" offset="1" stop-color="#cae7fc" stop-opacity="0"/>
  </linearGradient>
  <path id="b" d="M 11,4 C 10.027,7.405 7.644,10.344 6.594,12.688 6.227,13.385 6,14.155 6,15.001 6,17.771 8.23,20.001 11,20.001 13.77,20.001 16,17.771 16,15.001 16,14.156 15.774,13.385 15.406,12.688 14.356,10.344 11.973,7.405 11,4"/>
 </defs>
 <use style="fill:#b3b3b3" id="use42" width="100%" height="100%" x="0" y="0" transform="matrix(1.5,0,0,1.5,-0.5,-2)" xlink:href="#b"/>
 <path d="M 16,4 C 15.552,5.572 14.902,7.066 14.172,8.5 H 16 Z M 16,8.5 V 14.5 H 21.25 C 20.192,12.679 18.932,10.669 17.828,8.5 Z M 16,14.5 H 10.75 C 10.5,14.932 10.219,15.355 10,15.766 V 20.5 H 16 Z M 16,20.5 V 26.5 H 20.5 C 21.071,26.071 21.571,25.571 22,25 V 20.5 Z" style="fill:#777777"/>
 <use id="use48" width="100%" height="100%" x="0" y="0" transform="matrix(1.5,0,0,1.5,-0.5,-2)" xlink:href="#b" style="fill:url(#a)"/>
 <path class="ColorScheme-Text" d="M 16,4 C 14.541,9.1075 10.966,13.516 9.391,17.032 8.8405,18.077 8.5,19.233 8.5,20.501 8.5,24.657 11.845,28.001 16,28.001 20.155,28.001 23.5,24.657 23.5,20.501 23.5,19.234 23.161,18.077 22.609,17.032 21.034,13.516 17.459,9.109 16,4 M 16,7 C 17.167,11.151 20.036,14.737 21.297,17.59 21.531,18.04 21.688,18.491 21.812,18.997 21.863,19.205 21.925,19.435 21.953,19.654 21.958,19.684 21.95,19.718 21.953,19.748 21.979,19.966 22,20.179 22,20.405 22,20.437 22,20.467 22,20.5 21.994,20.888 21.932,21.257 21.859,21.625 21.853,21.655 21.865,21.689 21.859,21.719 21.78,22.085 21.672,22.46 21.531,22.798 21.525,22.812 21.537,22.831 21.531,22.845 21.382,23.196 21.175,23.517 20.968,23.829 20.961,23.841 20.976,23.865 20.968,23.875 20.758,24.187 20.527,24.453 20.265,24.72 19.987,25.002 19.704,25.248 19.374,25.47 18.417,26.125 17.245,26.502 15.999,26.502 15.583,26.502 15.172,26.442 14.779,26.361 14.5,26.303 14.245,26.221 13.983,26.126 13.936,26.11 13.888,26.098 13.842,26.08 13.782,26.056 13.713,26.057 13.654,26.033 13.558,25.993 13.467,25.939 13.372,25.892 13.208,25.811 13.059,25.706 12.903,25.61 12.796,25.544 12.678,25.495 12.574,25.423 12.546,25.403 12.508,25.396 12.48,25.376 12.211,25.181 11.962,24.955 11.73,24.719 11.505,24.49 11.307,24.232 11.121,23.969 11.102,23.957 11.092,23.935 11.074,23.923 10.392,22.934 9.9955,21.712 9.9955,20.407 9.9955,19.376 10.258,18.443 10.699,17.594 11.959,14.738 14.829,11.15 15.996,7.0045" style="color:#808080;fill:currentColor"/>
</svg>
